Sources/FrostedUI/Resources/Icons.xcassets/speaker20.imageset/speaker-20.svg

<svg width="20" height="20" viewBox="0 0 20 20" fill="none" xmlns="http://www.w3.org/2000/svg" data-fui-icon="true">
  <path
    d="M13.125 0.8125C15.7829 0.8125 17.9375 2.96713 17.9375 5.625V14.375C17.9375 17.0329 15.7829 19.1875 13.125 19.1875H6.875C4.21713 19.1875 2.0625 17.0329 2.0625 14.375V5.625C2.0625 2.96713 4.21713 0.8125 6.875 0.8125H13.125ZM6.875 2.3125C5.04556 2.3125 3.5625 3.79556 3.5625 5.625V14.375C3.5625 16.2044 5.04556 17.6875 6.875 17.6875H13.125C14.9544 17.6875 16.4375 16.2044 16.4375 14.375V5.625C16.4375 3.79556 14.9544 2.3125 13.125 2.3125H6.875ZM10 8.125C12.0711 8.125 13.75 9.80393 13.75 11.875C13.75 13.9461 12.0711 15.625 10 15.625C7.92893 15.625 6.25 13.9461 6.25 11.875C6.25 9.80393 7.92893 8.125 10 8.125ZM10 9.625C8.75736 9.625 7.75 10.6324 7.75 11.875C7.75 13.1176 8.75736 14.125 10 14.125C11.2426 14.125 12.25 13.1176 12.25 11.875C12.25 10.6324 11.2426 9.625 10 9.625ZM10 4.375C10.6904 4.375 11.25 4.93464 11.25 5.625C11.25 6.31536 10.6904 6.875 10 6.875C9.30964 6.875 8.75 6.31536 8.75 5.625C8.75 4.93464 9.30964 4.375 10 4.375Z"
    fill="currentColor"
  />
</svg>

<svg xmlns="http://www.w3.org/2000/svg" width="20" height="20" fill="none" data-fui-icon="true" viewBox="0 0 20 20"><path fill="currentColor" d="M13.125.813a4.81 4.81 0 0 1 4.813 4.812v8.75a4.81 4.81 0 0 1-4.813 4.813h-6.25a4.81 4.81 0 0 1-4.812-4.813v-8.75A4.813 4.813 0 0 1 6.875.813zm-6.25 1.5a3.313 3.313 0 0 0-3.312 3.312v8.75a3.313 3.313 0 0 0 3.312 3.313h6.25a3.313 3.313 0 0 0 3.313-3.313v-8.75a3.313 3.313 0 0 0-3.313-3.312zM10 8.125a3.75 3.75 0 1 1 0 7.5 3.75 3.75 0 0 1 0-7.5m0 1.5a2.25 2.25 0 1 0 0 4.5 2.25 2.25 0 0 0 0-4.5m0-5.25a1.25 1.25 0 1 1 0 2.5 1.25 1.25 0 0 1 0-2.5"/></svg>
